moscow-sport/img/sprite/cat5.svg

<svg width="544" height="470" fill="none" xmlns="http://www.w3.org/2000/svg"><g clip-path="url(#clip0)" fill="#EB3333"><path d="M624.12 142.39h11.794c.086 0 .086 0 .086-.086v-4.042c0-.086 0-.086-.086-.086H624.12v4.214zM619.471 150.646h11.794c.086 0 .086 0 .086-.086v-4.042c0-.086 0-.086-.086-.086h-11.794v4.214zM616.458 158.558h11.794c.086 0 .086 0 .086-.086v-4.042c0-.086 0-.086-.086-.086h-11.794v4.214zM274.079 627l-61.295-48.074c-3.272-2.58-1.464-7.826 2.582-7.826h353.742L616.63 627H274.079z"/><path d="M288.37 556.738v62.522l-58.541-41.022 1.98-43.344 56.561 21.844z"/><path d="M274.079 552.008l-50.19-20.382c-2.927-1.204-2.066-5.59 1.033-5.59l330.154-2.15 61.554 25.112-342.551 3.01z"/><path d="M274.079 549.084H616.63V627H274.079v-77.916zM274.079 552.008l-42.528-17.114-.086 3.01 42.614 27.004v-12.9z"/><path d="M367.745 564.908h229.773v48.074H367.745v-48.074zM323.839 606.274c-9.557 0-17.304-7.932-17.304-17.716s7.747-17.716 17.304-17.716c9.557 0 17.304 7.932 17.304 17.716s-7.747 17.716-17.304 17.716z"/><path d="M323.839 607.134c9.987 0 18.079-8.342 18.079-18.576s-8.092-18.576-18.079-18.576c-9.986 0-18.079 8.342-18.079 18.576-.086 10.234 8.093 18.576 18.079 18.576zm0-35.518c9.126 0 16.443 7.568 16.443 16.942 0 9.288-7.403 16.942-16.443 16.942-9.125 0-16.443-7.568-16.443-16.942-.086-9.374 7.318-16.942 16.443-16.942zM323.064 25l-92.288 54.438c-4.821 3.096-1.721 8.772 3.444 8.772l349.351-7.482 29.701-39.388L323.064 25z"/><path d="M326.078 102.4l3.013-74.992-76.878 45.322 2.755 54.696 71.11-25.026z"/><path d="M323.495 98.186l-79.805 30.96c-4.132 1.634-3.013 6.966 1.463 6.708l328.69-15.308 40.462-22.36h-290.81zM323.064 25l291.5 16.34-.259 56.846h-290.81L323.064 25z"/><path d="M602.339 91.564l.086-41.624-185.351-11.868-.172 52.546 185.437.946zM266.848 461.45H607.59v79.206H266.848V461.45z"/><path d="M275.026 405.636h340.743v55.986H275.026v-55.986z"/><path d="M261.941 339.072h340.742v66.736H261.941v-66.736z"/><path d="M283.377 263.994H624.12v79.378H283.377v-79.378z"/><path d="M275.715 183.756h340.743v84.122H275.715v-84.122zM267.967 156.408H608.71v27.348H267.967v-27.348z"/><path d="M283.377 134.822H624.12v27.348H283.377v-27.348zM273.132 121.148h340.743a28.269 28.269 0 0 1 0-13.674l-340.743 6.794v6.88zM266.848 134.822H607.59c-1.463-4.386-1.463-9.202 0-13.674H266.848v13.674zM388.234 276.206h211.608v54.954H388.234v-54.954zM316.78 385.77c-9.224 0-16.702-7.662-16.702-17.114 0-9.452 7.478-17.114 16.702-17.114 9.224 0 16.701 7.662 16.701 17.114 0 9.452-7.477 17.114-16.701 17.114z"/><path d="M316.78 386.63c9.642 0 17.562-8.084 17.562-17.974s-7.834-17.974-17.562-17.974c-9.642 0-17.562 8.084-17.562 17.974s7.92 17.974 17.562 17.974zm0-34.314c8.781 0 15.926 7.31 15.926 16.34 0 9.03-7.145 16.34-15.926 16.34s-15.927-7.31-15.927-16.34c0-9.03 7.146-16.34 15.927-16.34zM323.839 321.442c-9.224 0-16.701-7.662-16.701-17.114 0-9.452 7.477-17.114 16.701-17.114s16.702 7.662 16.702 17.114c0 9.452-7.478 17.114-16.702 17.114z"/><path d="M323.839 322.388c9.642 0 17.562-8.084 17.562-17.974s-7.834-17.974-17.562-17.974c-9.642 0-17.562 8.084-17.562 17.974s7.834 17.974 17.562 17.974zm0-34.314c8.781 0 15.927 7.31 15.927 16.34 0 9.03-7.146 16.34-15.927 16.34-8.781 0-15.926-7.31-15.926-16.34 0-9.03 7.145-16.34 15.926-16.34zM325.991 249.374c-9.223 0-16.701-7.662-16.701-17.114 0-9.452 7.478-17.114 16.701-17.114 9.224 0 16.702 7.662 16.702 17.114 0 9.452-7.478 17.114-16.702 17.114z"/><path d="M325.991 250.234c9.642 0 17.563-8.084 17.563-17.974s-7.834-17.974-17.563-17.974c-9.642 0-17.562 8.084-17.562 17.974s7.92 17.974 17.562 17.974zm0-34.314c8.782 0 15.927 7.31 15.927 16.34 0 9.03-7.145 16.34-15.927 16.34-8.781 0-15.926-7.31-15.926-16.34 0-9.03 7.145-16.34 15.926-16.34zM318.416 520.876c-9.224 0-16.702-7.662-16.702-17.114 0-9.452 7.478-17.114 16.702-17.114 9.223 0 16.701 7.662 16.701 17.114 0 9.452-7.478 17.114-16.701 17.114z"/><path d="M318.416 521.736c9.642 0 17.562-8.084 17.562-17.974s-7.834-17.974-17.562-17.974c-9.729 0-17.563 8.084-17.563 17.974s7.921 17.974 17.563 17.974zm0-34.314c8.781 0 15.926 7.31 15.926 16.34 0 9.03-7.145 16.34-15.926 16.34-8.782 0-15.927-7.31-15.927-16.34 0-9.03 7.145-16.34 15.927-16.34zM370.758 78.75c-9.224 0-16.701-7.662-16.701-17.114 0-9.452 7.477-17.114 16.701-17.114s16.701 7.662 16.701 17.114c0 9.452-7.477 17.114-16.701 17.114z"/><path d="M370.758 79.61c9.642 0 17.562-8.084 17.562-17.974s-7.834-17.974-17.562-17.974c-9.642 0-17.562 8.084-17.562 17.974s7.92 17.974 17.562 17.974zm0-34.314c8.781 0 15.927 7.31 15.927 16.34 0 9.03-7.146 16.34-15.927 16.34-8.781 0-15.927-7.31-15.927-16.34 0-9.03 7.146-16.34 15.927-16.34zM364.56 229.68s-108.818 63.64-181.305-45.322L92 242.236s136.969 57.276 147.385 53.664c77.653-26.66 125.175-66.22 125.175-66.22zM323.064 73.246s-20.058 9.202-74.725-18.662L189.884 77.46s60.09 33.54 65.772 31.562c41.754-14.448 67.408-35.776 67.408-35.776zM269.947 422.406c33.575-35.088 36.588-83.334 36.588-83.334s5.682 57.62-13.774 132.182c-.775 3.01-11.278 11.868-25.655 22.962.258-23.908 1.55-47.902 2.841-71.81z"/><path d="M297.324 318.346S289.92 436.424 169.825 437.37l-2.755 101.308s113.811-78.088 116.479-88.15c19.543-74.562 13.775-132.182 13.775-132.182zM568.075 108.936c7.49-1.548 15.066-2.838 22.642-3.956 7.145-1.032 14.549-1.548 21.694-2.838-4.304.86-8.695 1.634-12.999 2.494l21.178-4.386c-4.218 2.924-7.92 4.3-10.331 4.988-.086 0 0 .086 0 .086l10.503-.688s.086.086 0 .086c-8.264 4.644-14.119 4.3-14.119 4.3l-35.727-.688-2.841.602zM285.443 100.594l-44.336 16.426v1.634l83.249-27.09-38.913 9.03zM505.574 134.822s-155.65 75.336-161.245 103.114l-43.476-36.292s139.207-66.306 204.721-66.822z"/><path d="M294.999 225.724c38.052-29.928 80.924-52.632 126.724-66.994l83.851-23.994H193.93l101.069 90.988zM594.419 203.106v12.9c-4.821 1.462-8.437 6.106-8.437 11.524 0 5.504 3.53 10.062 8.437 11.524v14.19h-68.355v-50.138h68.355zM585.724 415.268v9.46c-4.821 1.118-8.437 4.472-8.437 8.514 0 4.042 3.53 7.396 8.437 8.514v10.406h-68.355v-36.808h68.355v-.086z"/><path d="M541.215 207.062h1.636v41.968h-1.636v-41.968zM530.11 207.062h7.662v41.968h-7.662v-41.968zM383.327 481.488h196.629v39.474H383.327v-39.474zM383.327 348.876h196.629v39.474H383.327v-39.474zM559.983 423.61h4.649v23.65h-4.649v-23.65zM549.222 423.61h4.649v23.65h-4.649v-23.65zM535.447 423.61h4.649v23.65h-4.649v-23.65zM306.535 418.794h7.404v33.196h-7.404v-33.196z"/></g><defs><clipPath id="clip0"><path fill="#fff" d="M0 0h544v470H0z"/></clipPath></defs></svg>

<svg width="544" height="470" viewBox="0 0 544 470" fill="none" xmlns="http://www.w3.org/2000/svg">
<g clip-path="url(#clip0)">
<path d="M624.12 142.39H635.914C636 142.39 636 142.39 636 142.304V138.262C636 138.176 636 138.176 635.914 138.176H624.12V142.39Z" fill="#EB3333"/>
<path d="M619.471 150.646H631.265C631.351 150.646 631.351 150.646 631.351 150.56V146.518C631.351 146.432 631.351 146.432 631.265 146.432H619.471V150.646Z" fill="#EB3333"/>
<path d="M616.458 158.558H628.252C628.338 158.558 628.338 158.558 628.338 158.472V154.43C628.338 154.344 628.338 154.344 628.252 154.344H616.458V158.558Z" fill="#EB3333"/>
<path d="M274.079 627L212.784 578.926C209.512 576.346 211.32 571.1 215.366 571.1H569.108L616.63 627H274.079Z" fill="#EB3333"/>
<path d="M288.37 556.738V619.26L229.829 578.238L231.809 534.894L288.37 556.738Z" fill="#EB3333"/>
<path d="M274.079 552.008L223.889 531.626C220.962 530.422 221.823 526.036 224.922 526.036L555.076 523.886L616.63 548.998L274.079 552.008Z" fill="#EB3333"/>
<path d="M274.079 549.084H616.63V627H274.079V549.084Z" fill="#EB3333"/>
<path d="M274.079 552.008L231.551 534.894L231.465 537.904L274.079 564.908V552.008Z" fill="#EB3333"/>
<path d="M367.745 564.908H597.518V612.982H367.745V564.908Z" fill="#EB3333"/>
<path d="M323.839 606.274C314.282 606.274 306.535 598.342 306.535 588.558C306.535 578.774 314.282 570.842 323.839 570.842C333.396 570.842 341.143 578.774 341.143 588.558C341.143 598.342 333.396 606.274 323.839 606.274Z" fill="#EB3333"/>
<path d="M323.839 607.134C333.826 607.134 341.918 598.792 341.918 588.558C341.918 578.324 333.826 569.982 323.839 569.982C313.853 569.982 305.76 578.324 305.76 588.558C305.674 598.792 313.853 607.134 323.839 607.134ZM323.839 571.616C332.965 571.616 340.282 579.184 340.282 588.558C340.282 597.846 332.879 605.5 323.839 605.5C314.714 605.5 307.396 597.932 307.396 588.558C307.31 579.184 314.714 571.616 323.839 571.616Z" fill="#EB3333"/>
<path d="M323.064 25L230.776 79.438C225.955 82.534 229.055 88.21 234.22 88.21L583.571 80.728L613.272 41.34L323.064 25Z" fill="#EB3333"/>
<path d="M326.078 102.4L329.091 27.408L252.213 72.73L254.968 127.426L326.078 102.4Z" fill="#EB3333"/>
<path d="M323.495 98.186L243.69 129.146C239.558 130.78 240.677 136.112 245.153 135.854L573.843 120.546L614.305 98.186H323.495Z" fill="#EB3333"/>
<path d="M323.064 25L614.564 41.34L614.305 98.186H323.495L323.064 25Z" fill="#EB3333"/>
<path d="M602.339 91.564L602.425 49.94L417.074 38.072L416.902 90.618L602.339 91.564Z" fill="#EB3333"/>
<path d="M266.848 461.45H607.59V540.656H266.848V461.45Z" fill="#EB3333"/>
<path d="M275.026 405.636H615.769V461.622H275.026V405.636Z" fill="#EB3333"/>
<path d="M261.941 339.072H602.683V405.808H261.941V339.072Z" fill="#EB3333"/>
<path d="M283.377 263.994H624.12V343.372H283.377V263.994Z" fill="#EB3333"/>
<path d="M275.715 183.756H616.458V267.878H275.715V183.756Z" fill="#EB3333"/>
<path d="M267.967 156.408H608.71V183.756H267.967V156.408Z" fill="#EB3333"/>
<path d="M283.377 134.822H624.12V162.17H283.377V134.822Z" fill="#EB3333"/>
<path d="M273.132 121.148H613.875C612.756 116.676 612.756 111.946 613.875 107.474L273.132 114.268V121.148Z" fill="#EB3333"/>
<path d="M266.848 134.822H607.59C606.127 130.436 606.127 125.62 607.59 121.148H266.848V134.822Z" fill="#EB3333"/>
<path d="M388.234 276.206H599.842V331.16H388.234V276.206Z" fill="#EB3333"/>
<path d="M316.78 385.77C307.556 385.77 300.078 378.108 300.078 368.656C300.078 359.204 307.556 351.542 316.78 351.542C326.004 351.542 333.481 359.204 333.481 368.656C333.481 378.108 326.004 385.77 316.78 385.77Z" fill="#EB3333"/>
<path d="M316.78 386.63C326.422 386.63 334.342 378.546 334.342 368.656C334.342 358.766 326.508 350.682 316.78 350.682C307.138 350.682 299.218 358.766 299.218 368.656C299.218 378.546 307.138 386.63 316.78 386.63ZM316.78 352.316C325.561 352.316 332.706 359.626 332.706 368.656C332.706 377.686 325.561 384.996 316.78 384.996C307.999 384.996 300.853 377.686 300.853 368.656C300.853 359.626 307.999 352.316 316.78 352.316Z" fill="#EB3333"/>
<path d="M323.839 321.442C314.615 321.442 307.138 313.78 307.138 304.328C307.138 294.876 314.615 287.214 323.839 287.214C333.063 287.214 340.541 294.876 340.541 304.328C340.541 313.78 333.063 321.442 323.839 321.442Z" fill="#EB3333"/>
<path d="M323.839 322.388C333.481 322.388 341.401 314.304 341.401 304.414C341.401 294.524 333.567 286.44 323.839 286.44C314.197 286.44 306.277 294.524 306.277 304.414C306.277 314.304 314.111 322.388 323.839 322.388ZM323.839 288.074C332.62 288.074 339.766 295.384 339.766 304.414C339.766 313.444 332.62 320.754 323.839 320.754C315.058 320.754 307.913 313.444 307.913 304.414C307.913 295.384 315.058 288.074 323.839 288.074Z" fill="#EB3333"/>
<path d="M325.991 249.374C316.768 249.374 309.29 241.712 309.29 232.26C309.29 222.808 316.768 215.146 325.991 215.146C335.215 215.146 342.693 222.808 342.693 232.26C342.693 241.712 335.215 249.374 325.991 249.374Z" fill="#EB3333"/>
<path d="M325.991 250.234C335.633 250.234 343.554 242.15 343.554 232.26C343.554 222.37 335.72 214.286 325.991 214.286C316.349 214.286 308.429 222.37 308.429 232.26C308.429 242.15 316.349 250.234 325.991 250.234ZM325.991 215.92C334.773 215.92 341.918 223.23 341.918 232.26C341.918 241.29 334.773 248.6 325.991 248.6C317.21 248.6 310.065 241.29 310.065 232.26C310.065 223.23 317.21 215.92 325.991 215.92Z" fill="#EB3333"/>
<path d="M318.416 520.876C309.192 520.876 301.714 513.214 301.714 503.762C301.714 494.31 309.192 486.648 318.416 486.648C327.639 486.648 335.117 494.31 335.117 503.762C335.117 513.214 327.639 520.876 318.416 520.876Z" fill="#EB3333"/>
<path d="M318.416 521.736C328.058 521.736 335.978 513.652 335.978 503.762C335.978 493.872 328.144 485.788 318.416 485.788C308.687 485.788 300.853 493.872 300.853 503.762C300.853 513.652 308.774 521.736 318.416 521.736ZM318.416 487.422C327.197 487.422 334.342 494.732 334.342 503.762C334.342 512.792 327.197 520.102 318.416 520.102C309.634 520.102 302.489 512.792 302.489 503.762C302.489 494.732 309.634 487.422 318.416 487.422Z" fill="#EB3333"/>
<path d="M370.758 78.75C361.534 78.75 354.057 71.0878 354.057 61.636C354.057 52.1842 361.534 44.522 370.758 44.522C379.982 44.522 387.459 52.1842 387.459 61.636C387.459 71.0878 379.982 78.75 370.758 78.75Z" fill="#EB3333"/>
<path d="M370.758 79.61C380.4 79.61 388.32 71.526 388.32 61.636C388.32 51.746 380.486 43.662 370.758 43.662C361.116 43.662 353.196 51.746 353.196 61.636C353.196 71.526 361.116 79.61 370.758 79.61ZM370.758 45.296C379.539 45.296 386.685 52.606 386.685 61.636C386.685 70.666 379.539 77.976 370.758 77.976C361.977 77.976 354.831 70.666 354.831 61.636C354.831 52.606 361.977 45.296 370.758 45.296Z" fill="#EB3333"/>
<path d="M364.56 229.68C364.56 229.68 255.742 293.32 183.255 184.358L92 242.236C92 242.236 228.969 299.512 239.385 295.9C317.038 269.24 364.56 229.68 364.56 229.68Z" fill="#EB3333"/>
<path d="M323.064 73.246C323.064 73.246 303.006 82.448 248.339 54.584L189.884 77.46C189.884 77.46 249.974 111 255.656 109.022C297.41 94.574 323.064 73.246 323.064 73.246Z" fill="#EB3333"/>
<path d="M269.947 422.406C303.522 387.318 306.535 339.072 306.535 339.072C306.535 339.072 312.217 396.692 292.761 471.254C291.986 474.264 281.483 483.122 267.106 494.216C267.364 470.308 268.656 446.314 269.947 422.406Z" fill="#EB3333"/>
<path d="M297.324 318.346C297.324 318.346 289.92 436.424 169.825 437.37L167.07 538.678C167.07 538.678 280.881 460.59 283.549 450.528C303.092 375.966 297.324 318.346 297.324 318.346Z" fill="#EB3333"/>
<path d="M568.075 108.936C575.565 107.388 583.141 106.098 590.717 104.98C597.862 103.948 605.266 103.432 612.411 102.142C608.107 103.002 603.716 103.776 599.412 104.636C606.471 103.174 613.531 101.712 620.59 100.25C616.372 103.174 612.67 104.55 610.259 105.238C610.173 105.238 610.259 105.324 610.259 105.324L620.762 104.636C620.762 104.636 620.848 104.722 620.762 104.722C612.498 109.366 606.643 109.022 606.643 109.022L570.916 108.334L568.075 108.936Z" fill="#EB3333"/>
<path d="M285.443 100.594L241.107 117.02V118.654L324.356 91.564L285.443 100.594Z" fill="#EB3333"/>
<path d="M505.574 134.822C505.574 134.822 349.924 210.158 344.329 237.936L300.853 201.644C300.853 201.644 440.06 135.338 505.574 134.822Z" fill="#EB3333"/>
<path d="M294.999 225.724C333.051 195.796 375.923 173.092 421.723 158.73L505.574 134.736H193.93L294.999 225.724Z" fill="#EB3333"/>
<path d="M594.419 203.106V216.006C589.598 217.468 585.982 222.112 585.982 227.53C585.982 233.034 589.512 237.592 594.419 239.054V253.244H526.064V203.106H594.419Z" fill="#EB3333"/>
<path d="M585.724 415.268V424.728C580.903 425.846 577.287 429.2 577.287 433.242C577.287 437.284 580.817 440.638 585.724 441.756V452.162H517.369V415.354H585.724V415.268Z" fill="#EB3333"/>
<path d="M541.215 207.062H542.851V249.03H541.215V207.062Z" fill="#EB3333"/>
<path d="M530.11 207.062H537.772V249.03H530.11V207.062Z" fill="#EB3333"/>
<path d="M383.327 481.488H579.956V520.962H383.327V481.488Z" fill="#EB3333"/>
<path d="M383.327 348.876H579.956V388.35H383.327V348.876Z" fill="#EB3333"/>
<path d="M559.983 423.61H564.632V447.26H559.983V423.61Z" fill="#EB3333"/>
<path d="M549.222 423.61H553.871V447.26H549.222V423.61Z" fill="#EB3333"/>
<path d="M535.447 423.61H540.096V447.26H535.447V423.61Z" fill="#EB3333"/>
<path d="M306.535 418.794H313.939V451.99H306.535V418.794Z" fill="#EB3333"/>
</g>
<defs>
<clipPath id="clip0">
<rect width="544" height="470" fill="white"/>
</clipPath>
</defs>
</svg>
